X: 1
T: Packie Byrne's
M: 3/4
L: 1/8
R: mazurka
K: Gmaj
|: D>G | 
B2 (3Bcd c>B | c2 A2 D>F | A>^G A>B (3cBA | B2 G2 D>G |
B>D G>d (3dcB | c2 A2 D>F | A2 A2 c>F | G2 G2 :|
|: (3GBd | 
g2 (3gab a>g | f2 A2 A>B | c>B c>e (3edc | B2 G2 (3Bcd |
g2 g2 a>g | f2 A>^G A>B |1 c2 c2 e>d | B2 B2 :|2 c>B c>d e>F | G2 G2 ||
